; generated by PrusaSlicer 2.5.0-alpha0+n8 on 2022-04-04 at 14:21:46 UTC


;
;

;
;
; 

; external perimeters extrusion width = 0.75mm
; perimeters extrusion width = 0.75mm
; infill extrusion width = 0.75mm
; solid infill extrusion width = 0.75mm
; top infill extrusion width = 0.75mm
; support material extrusion width = 0.75mm
; first layer extrusion width = 0.75mm

M107
;TYPE:Custom
G21 ; set units to millimeters
G90 ; use absolute coordinates
M83 ; use relative distances for extrusion
M107
;LAYER_CHANGE
;Z:0.5
;HEIGHT:0.5
G1 Z.5 F6000
G10 ; retract
G1 X120.206804 Y107.131641
G11 ; unretract
;TYPE:Skirt/Brim
;WIDTH:0.75
G1 F1500
G1 X120.837835 Y106.558948 E.132857676
G1 X121.195538 Y106.306791 E.068232125
G1 X121.957288 Y105.90046 E.134601731
G1 X122.775332 Y105.624467 E.134601747
G1 X123.193055 Y105.538725 E.066483674
G1 X124.038935 Y105.470133 E.132311388
G1 X172.917676 Y105.470145 E7.620532156
G1 X173.678168 Y105.527161 E.118898693
G1 X174.422375 Y105.693755 E.118898561
G1 X175.473978 Y106.140799 E.178151652
G1 X176.420661 Y106.81977 E.181630537
G1 X177.187813 Y107.681639 E.179891167
G1 X177.582854 Y108.333974 E.118898635
G1 X177.879815 Y109.038423 E.119188159
G1 X191.301477 Y148.730643 E6.532504612
G1 X191.480122 Y149.402745 E.108423697
G1 X191.553282 Y149.902346 E.078721945
G1 X191.578101 Y199.291094 E7.70004673
G1 X191.557954 Y199.739504 E.069980733
G1 X191.406259 Y200.612136 E.138089674
G1 X191.128385 Y201.405873 E.131113182
G1 X190.94536 Y201.778574 E.064735006
G1 X190.487154 Y202.483754 E.131113107
G1 X190.220953 Y202.80241 E.064735087
G1 X189.930403 Y203.099032 E.064734955
G1 X189.27438 Y203.625213 E.131113204
G1 X188.542758 Y204.039895 E.131113139
G1 X187.765109 Y204.329378 E.129368745
G1 X186.940416 Y204.494041 E.131113188
G1 X186.335664 Y204.529864 E.094450272
G1 X156.31689 Y204.529857 E4.680133487
G1 X155.412375 Y204.449387 E.141577083
G1 X154.566945 Y204.225653 E.136345787
G1 X153.760588 Y203.859203 E.138089606
G1 X144.984752 Y198.792454 E1.579877943
G1 X144.491694 Y198.460116 E.092702964
G1 X144.031273 Y198.066389 E.094450295
G1 X143.555713 Y197.543722 E.110169821
G1 X143.15465 Y196.961925 E.11016995
G1 X138.104482 Y188.215397 E1.574628251
G1 X137.768444 Y187.505942 E.122389181
G1 X137.573079 Y186.886783 E.101222518
G1 X118.938783 Y111.965504 E12.036612197
G1 X118.79164 Y110.888638 E.169450876
G1 X118.801986 Y110.350175 E.083965583
G1 X118.963608 Y109.377166 E.153777321
G1 X119.252333 Y108.563528 E.134601819
G1 X119.443149 Y108.182171 E.066483621
G1 X119.670501 Y107.808211 E.0682322
G1 X120.148078 Y107.199841 E.120583049
G1 X120.714407 Y107.691194 F6000
G1 F1500
G1 X121.321613 Y107.133189 E.128570604
G1 X121.952773 Y106.732913 E.116522412
G1 X122.631602 Y106.445859 E.114907583
G1 X122.99141 Y106.343754 E.058311514
G1 X123.7302 Y106.230736 E.116522403
G1 X172.916843 Y106.220145 E7.668536375
G1 X173.579417 Y106.270738 E.103600559
G1 X174.227316 Y106.418352 E.103600447
G1 X174.846413 Y106.65977 E.103600534
G1 X175.414586 Y106.983924 E.101984599
G1 X175.93745 Y107.394017 E.10360045
G1 X176.387645 Y107.868592 E.10198467
G1 X176.76962 Y108.412336 E.10360038
G1 X177.067356 Y109.006404 E.103600507
G1 X190.590997 Y148.970887 E6.577808706
G1 X190.80874 Y149.995245 E.163272647
G1 X190.828101 Y199.290261 E7.685432886
G1 X190.810796 Y199.67427 E.059930406
G1 X190.681069 Y200.420823 E.11813694
G1 X190.279755 Y201.432665 E.169707858
G1 X189.64722 Y202.318541 E.169707834
G1 X188.820476 Y203.026617 E.169707866
G1 X188.184923 Y203.378925 E.113292775
G1 X187.50095 Y203.624343 E.11329283
G1 X186.786394 Y203.756472 E.113292754
G1 X186.328113 Y203.779869 E.071542218
G1 X156.317723 Y203.779857 E4.678826363
G1 X155.542349 Y203.710735 E.121365542
G1 X154.810039 Y203.516075 E.118136938
G1 X154.120772 Y203.201302 E.118136998
G1 X145.373012 Y198.150743 E1.574825074
G1 X144.942317 Y197.860568 E.080966531
G1 X144.540441 Y197.51549 E.082584031
G1 X144.136353 Y197.068856 E.093903201
G1 X143.79553 Y196.572259 E.093903183
G1 X138.760394 Y187.851591 E1.569964855
G1 X138.466812 Y187.23244 E.106831869
G1 X138.300905 Y186.705759 E.086090816
G1 X119.667011 Y111.786096 E12.036352572
G1 X119.54114 Y110.860995 E.145558541
G1 X119.550794 Y110.393651 E.07287769
G1 X119.689806 Y109.564676 E.131047492
G1 X119.936749 Y108.870249 E.114907678
G1 X120.104537 Y108.535982 E.058311517
G1 X120.655426 Y107.759174 E.148472914
G1 X121.218165 Y108.254085 F6000
G1 F1500
G1 X121.789655 Y107.719593 E.121994772
G1 X122.319605 Y107.387506 E.097504616
G1 X122.897377 Y107.14811 E.097504884
G1 X123.818291 Y106.97663 E.146044726
G1 X172.915938 Y106.970145 E7.654661175
G1 X173.473478 Y107.01325 E.087183722
G1 X174.018409 Y107.138785 E.087183713
G1 X174.530067 Y107.339841 E.085708726
G1 X175.014684 Y107.618866 E.087183679
G1 X175.445447 Y107.960423 E.0857088
G1 X175.827602 Y108.36867 E.087183605
G1 X176.144799 Y108.829207 E.087183634
G1 X176.389986 Y109.331793 E.087183786
G1 X189.880516 Y149.211131 E6.563579785
G1 X190.062665 Y150.072321 E.13723583
G1 X190.078113 Y199.279869 E7.671795808
G1 X190.019466 Y199.940482 E.10339918
G1 X189.864697 Y200.526896 E.09455657
G1 X189.612853 Y201.089007 E.096030816
G1 X189.272391 Y201.602309 E.096030707
G1 X188.859501 Y202.046559 E.094556749
G1 X188.380398 Y202.41844 E.094556614
G1 X187.838934 Y202.712058 E.096030894
G1 X187.25671 Y202.913078 E.096030772
G1 X186.328113 Y203.029869 E.145915227
G1 X155.99651 Y203.015179 E4.728906236
G1 X155.361991 Y202.90328 E.100452409
G1 X154.485831 Y202.546134 E.147512104
G1 X145.760094 Y197.508325 E1.570857637
G1 X145.053261 Y196.968059 E.138704584
G1 X144.717373 Y196.594414 E.078331586
G1 X144.434448 Y196.179222 E.078331527
G1 X139.410819 Y187.478159 E1.566420791
G1 X139.163852 Y186.955441 E.090133436
G1 X139.02873 Y186.524734 E.070377147
G1 X120.395273 Y111.606829 E12.036070147
G1 X120.290483 Y110.827885 E.12253673
G1 X120.299473 Y110.439203 E.060614406
G1 X120.417094 Y109.74814 E.109290922
G1 X120.770995 Y108.880821 E.146044741
G1 X121.158728 Y108.321667 E.106084304
; printing object 1642364638657-jerk-test-combined.stl id:1 copy 0
G10 ; retract
G1 X184.353139 Y197.304869 F6000
G11 ; unretract
;TYPE:Perimeter
G1 F3000
G1 X156.857317 Y197.304869 E4.286787904
G1 X149.11366 Y192.834068 E1.394057637
G1 X144.642859 Y185.090416 E1.394056962
G1 X144.642859 Y176.14881 E1.394057921
G1 X149.11366 Y168.405161 E1.394056557
G1 X156.857317 Y163.93436 E1.394057637
G1 X166.857317 Y163.93436 E1.55906883
G1 X175.61467 Y158.878299 E1.576549214
G1 X175.604314 Y160.851701 E.307671191
G1 X174.475573 Y160.972781 E.176988074
G1 X173.835294 Y161.099682 E.10176565
G1 X173.27928 Y161.243027 E.089520879
G1 X172.270807 Y161.58931 E.166238686
G1 X171.281624 Y162.049401 E.170086245
G1 X170.36708 Y162.597546 E.166233126
G1 X169.899283 Y162.930379 E.089508997
G1 X169.38965 Y163.338343 E.101777515
G1 X168.627115 Y164.059985 E.163681943
G1 X168.191708 Y164.546378 E.101777156
G1 X167.833638 Y164.995116 E.089504663
G1 X167.235887 Y165.878214 E.16625613
G1 X166.732592 Y166.820789 E.166590972
G1 X166.48812 Y167.383855 E.095703193
G1 X166.276142 Y167.958664 E.095516357
G1 X165.995144 Y168.963995 E.162745451
G1 X165.884401 Y169.527331 E.089508946
G1 X165.794943 Y170.174051 E.101788151
G1 X165.736592 Y171.240838 E.166568052
G1 X165.786764 Y172.287643 E.16339145
G1 X165.941058 Y173.322961 E.16319586
G1 X166.20984 Y174.373803 E.169107782
G1 X166.556166 Y175.32067 E.157187761
G1 X167.027917 Y176.295086 E.168785712
G1 X167.553681 Y177.150496 E.156541229
G1 X168.158918 Y177.951648 E.156541408
G1 X168.894811 Y178.745974 E.168818598
G1 X169.650478 Y179.413207 E.157167168
G1 X170.529685 Y180.044998 E.16879502
G1 X171.403189 Y180.548455 E.157186166
G1 X172.390458 Y180.992458 E.168771541
G1 X173.34665 Y181.311885 E.15717523
G1 X174.406646 Y181.551335 E.169424794
G1 X175.485978 Y181.678831 E.169445235
G1 X176.485807 Y181.696167 E.155903653
G1 X177.400538 Y181.628186 E.143006154
G1 X178.378779 Y181.464595 E.154632394
G1 X179.261884 Y181.232298 E.142365808
G1 X180.11752 Y180.925414 E.141720193
G1 X180.943438 Y180.545092 E.141762603
G1 X181.73292 Y180.094421 E.141728376
G1 X182.4836 Y179.574367 E.142377784
G1 X183.23753 Y178.942706 E.153345025
G1 X183.760297 Y178.425359 E.114666651
G1 X184.353413 Y177.729623 E.142536342
G1 X184.35314 Y197.214869 E3.037883969
G1 X185.103128 Y198.054869 F6000
G1 F3000
G1 X156.656355 Y198.054869 E4.435047711
G1 X148.564622 Y193.383106 E1.456720302
G1 X143.892859 Y185.291378 E1.456719627
G1 X143.892859 Y175.947848 E1.456720639
G1 X148.564622 Y167.856123 E1.456719222
G1 X156.656355 Y163.18436 E1.456720302
G1 X166.656355 Y163.18436 E1.55906883
G1 X176.371518 Y157.575307 E1.7489797
G1 X176.350421 Y161.595556 E.626793121
G1 X175.584528 Y161.601891 E.119412075
G1 X174.590909 Y161.714511 E.155903919
G1 X174.00195 Y161.83124 E.093608856
G1 X173.495014 Y161.961932 E.081619078
G1 X172.551511 Y162.285907 E.155528952
G1 X171.633522 Y162.712884 E.157844702
G1 X170.777895 Y163.225716 E.155523991
G1 X170.351395 Y163.529166 E.081607112
G1 X169.882607 Y163.904434 E.093620527
G1 X169.165203 Y164.583365 E.15399432
G1 X168.764691 Y165.030777 E.09362041
G1 X168.438234 Y165.439897 E.081602525
G1 X167.878988 Y166.266108 E.155546376
G1 X167.408469 Y167.147301 E.155742255
G1 X167.184487 Y167.663175 E.087682053
G1 X166.990301 Y168.189738 E.087499298
G1 X166.725382 Y169.137543 E.153433
G1 X166.624415 Y169.651148 E.081607154
G1 X166.542127 Y170.246038 E.093630544
G1 X166.487574 Y171.243373 E.155723829
G1 X166.534106 Y172.214231 E.151537198
G1 X166.677196 Y173.17437 E.151345489
G1 X166.927126 Y174.151506 E.157246585
G1 X167.247607 Y175.027713 E.145457594
G1 X167.686573 Y175.93441 E.157055629
G1 X168.173798 Y176.727117 E.145066524
G1 X168.734668 Y177.46954 E.145066061
G1 X169.419424 Y178.208669 E.157087497
G1 X170.118691 Y178.826102 E.145436794
G1 X170.936799 Y179.413988 E.157064919
G1 X171.745116 Y179.879874 E.14545587
G1 X172.663772 Y180.293019 E.157042244
G1 X173.548605 Y180.588608 E.145445522
G1 X174.533613 Y180.811119 E.157439083
G1 X175.536597 Y180.929596 E.157459291
G1 X176.464471 Y180.945684 E.144683686
G1 X177.310705 Y180.882794 E.132297545
G1 X178.2212 Y180.730532 E.143923661
G1 X179.039463 Y180.515291 E.131912612
G1 X179.833529 Y180.23049 E.131522258
G1 X180.600027 Y179.87753 E.131563605
G1 X181.3327 Y179.459288 E.131529989
G1 X182.028265 Y178.977416 E.13192443
G1 X182.732054 Y178.387765 E.14314657
G1 X183.21531 Y177.90952 E.106000016
G1 X183.610256 Y177.463956 E.092828066
G1 X184.021074 Y176.934502 E.104480061
G1 X184.357895 Y176.436325 E.093755497
G1 X185.103449 Y175.130777 E.234395323
G1 X185.103129 Y197.964869 E3.559992111
G10 ; retract
G1 X184.353113 Y160.420381 F6000
G11 ; unretract
G1 F1500
G1 X178.648411 Y157.126768 E1.026993461
G1 X184.353113 Y153.833155 E1.026993461
G1 X184.353113 Y160.330381 E1.012962254
G1 X185.103113 Y161.719419 F6000
G1 F1500
G1 X177.148411 Y157.126768 E1.432051417
G1 X185.103113 Y152.534117 E1.432051417
G1 X185.103113 Y161.629419 E1.418020185
G10 ; retract
G1 X185.853118 Y198.802893 F6000
G11 ; unretract
;TYPE:External perimeter
G1 F1500
G1 X156.455393 Y198.804869 E4.583307683
G1 X148.015584 Y193.932144 E1.519382967
G1 X143.142859 Y185.49234 E1.519382292
G1 X143.142859 Y175.746886 E1.519383357
G1 X148.015584 Y167.307085 E1.519381886
G1 X156.455393 Y162.43436 E1.519382967
G1 X166.455393 Y162.43436 E1.55906883
G1 X185.853113 Y151.235079 E3.492089486
G1 X185.853113 Y163.018457 E1.837109736
G1 X177.119425 Y157.976058 E1.572288982
G1 X177.096287 Y162.385267 E.687435497
G1 X176.558889 Y162.343858 E.084032409
G1 X175.629987 Y162.351541 E.144827169
G1 X174.706245 Y162.456241 E.144939861
G1 X174.168605 Y162.562798 E.085452215
G1 X173.710748 Y162.680837 E.073717127
G1 X172.832215 Y162.982503 E.144819168
G1 X171.98542 Y163.376367 E.145603225
G1 X171.18871 Y163.853886 E.144814855
G1 X170.803507 Y164.127954 E.073705318
G1 X170.375563 Y164.470525 E.085463563
G1 X169.703291 Y165.106745 E.144306583
G1 X169.337674 Y165.515176 E.085463664
G1 X169.04283 Y165.884678 E.073700386
G1 X168.522089 Y166.654002 E.144836622
G1 X168.084346 Y167.473813 E.144893537
G1 X167.880854 Y167.942495 E.079660913
G1 X167.70446 Y168.420812 E.07948224
G1 X167.45562 Y169.311091 E.144120549
G1 X167.364429 Y169.774965 E.073705362
G1 X167.289311 Y170.318025 E.085472936
G1 X167.238556 Y171.245909 E.144879762
G1 X167.281448 Y172.140819 E.139682791
G1 X167.413334 Y173.025779 E.139495118
G1 X167.644412 Y173.929209 E.145385388
G1 X167.939048 Y174.734756 E.133727428
G1 X168.345229 Y175.573734 E.145325546
G1 X168.793915 Y176.303738 E.133591819
G1 X169.310418 Y176.987432 E.133590715
G1 X169.944037 Y177.671364 E.145356396
G1 X170.586904 Y178.238997 E.133706419
G1 X171.343913 Y178.782978 E.145334817
G1 X172.087043 Y179.211293 E.133725573
G1 X172.937085 Y179.59358 E.145312805
G1 X173.75056 Y179.865331 E.133715961
G1 X174.66058 Y180.070903 E.145453372
G1 X175.587216 Y180.180361 E.145473347
G1 X176.443135 Y180.195201 E.133463719
G1 X177.220872 Y180.137402 E.121588935
G1 X178.063621 Y179.996469 E.133214927
G1 X178.817042 Y179.798284 E.121459417
G1 X179.549538 Y179.535566 E.121324322
G1 X180.256616 Y179.209968 E.121364607
G1 X180.93248 Y178.824155 E.121331602
G1 X181.57293 Y178.380465 E.121471076
G1 X182.226579 Y177.832823 E.132948334
G1 X182.670323 Y177.393681 E.09733316
G1 X183.032741 Y176.984813 E.085182797
G1 X183.413494 Y176.494107 E.096833767
G1 X183.720683 Y176.039757 E.085507358
G1 X184.85869 Y174.04698 E.357778956
G1 X185.251959 Y173.183103 E.147983802
G1 X185.953113 Y171.959698 E.219841792
G1 X185.953113 Y173.497978 E.23982844
G1 X185.887135 Y173.987116 E.076950602
G1 X185.853451 Y175.002898 E.158454454
G1 X185.853119 Y198.712893 E3.696551417
G1 X185.333627 Y198.502679 F6000
G10 ; retract
G1 X184.128405 Y179.85865
G11 ; unretract
;TYPE:Top solid infill
;WIDTH:0.758204
G1 F1500
G1 X183.622669 Y179.352914 E.112727261
G1 X183.039728 Y179.842236 E.119956958
G1 X183.790894 Y180.593402 E.16743298
G1 X183.790879 Y181.66565 E.168999466
G1 X182.424684 Y180.299454 E.304521483
G1 X181.772479 Y180.719512 E.122270989
G1 X183.790864 Y182.737897 E.449892854
G1 X183.790849 Y183.810144 E.168999308
G1 X181.081482 Y181.100777 E.603910975
G1 X180.3473 Y181.438857 E.127395326
G1 X183.790834 Y184.882392 E.767555033
G1 X183.790819 Y185.954639 E.168999308
G1 X179.559353 Y181.723173 E.943182949
G1 X178.720294 Y181.956376 E.13725883
G1 X183.790804 Y187.026887 E1.130203822
G1 X183.790789 Y188.099134 E.168999308
G1 X177.819988 Y182.128333 E1.330876272
G1 X176.85235 Y182.232957 E.15340053
G1 X183.790774 Y189.171381 E1.546556963
G1 X183.790759 Y190.243629 E.168999466
G1 X175.793864 Y182.246734 E1.782487442
G1 X174.617502 Y182.142634 E.18613367
G1 X183.790744 Y191.315876 E2.04469218
G1 X183.790729 Y192.388123 E.168999308
G1 X172.753567 Y181.350961 E2.46015518
G10 ; retract
G1 X173.14693 Y180.403216 F6000
G1 X172.789717 Y180.273368
G1 X172.013459 Y179.900257
G1 X171.938274 Y179.863647
G1 X171.86368 Y179.826518
G1 X171.789256 Y179.78866
G1 X171.14641 Y179.454549
G1 X170.579144 Y179.04838
G1 X170.511558 Y178.999363
G1 X170.444428 Y178.94978
G1 X170.377655 Y178.899553
G1 X170.311363 Y178.848779
G1 X170.245405 Y178.797343
G1 X170.180109 Y178.745505
G1 X170.115111 Y178.69297
G1 X170.050653 Y178.639931
G1 X169.986609 Y178.586297
G1 X169.923054 Y178.532118
G1 X169.859965 Y178.477387
G1 X169.79737 Y178.422116
G1 X169.735258 Y178.366301
G1 X169.673609 Y178.30992
G1 X169.612427 Y178.252983
G1 X169.551864 Y178.19563
G1 X169.491791 Y178.137736
G1 X169.431998 Y178.0791
G1 X169.373027 Y178.020252
G1 X169.314317 Y177.960634
G1 X169.256324 Y177.900707
G1 X169.198727 Y177.840146
G1 X169.141652 Y177.779075
G1 X169.085179 Y177.717582
G1 X169.029295 Y177.655654
G1 X168.973851 Y177.59313
G1 X168.918994 Y177.530165
G1 X168.864723 Y177.466767
G1 X168.810904 Y177.402783
G1 X168.757784 Y177.338496
G1 X168.705016 Y177.273488
G1 X168.653005 Y177.208262
G1 X168.601546 Y177.142555
G1 X168.550594 Y177.076321
G1 X168.500252 Y177.009681
G1 X168.450503 Y176.94262
G1 X168.401366 Y176.875166
