; generated by PrusaSlicer 2.5.0-alpha0+n8 on 2022-04-08 at 12:58:06 UTC


;
;

;
;
; 

; external perimeters extrusion width = 0.75mm
; perimeters extrusion width = 0.75mm
; infill extrusion width = 0.75mm
; solid infill extrusion width = 0.75mm
; top infill extrusion width = 0.75mm
; support material extrusion width = 0.75mm
; first layer extrusion width = 0.75mm

M107
;TYPE:Custom
G21 ; set units to millimeters
G90 ; use absolute coordinates
M83 ; use relative distances for extrusion
M107
;LAYER_CHANGE
;Z:0.5
;HEIGHT:0.5
G1 Z.5 F6000
G10 ; retract
G1 X88.714325 Y88.862525
G11 ; unretract
;TYPE:Skirt/Brim
;WIDTH:0.75
G1 F1200
G1 X89.498229 Y88.192805 E.160745241
G1 X90.408195 Y87.684721 E.16248665
G1 X91.400596 Y87.366399 E.162486737
G1 X92.436322 Y87.250382 E.162486711
G1 X217.511229 Y87.250008 E19.500038896
G1 X218.470955 Y87.340562 E.150292458
G1 X219.387474 Y87.601021 E.148549561
G1 X220.241825 Y88.022841 E.148549707
G1 X221.005866 Y88.592128 E.148549592
G1 X221.349835 Y88.9305 E.075225723
G1 X221.661286 Y89.299022 E.075225708
G1 X222.171295 Y90.103844 E.148549697
G1 X222.527441 Y90.98759 E.148549643
G1 X222.717996 Y91.921151 E.148549674
G1 X222.749999 Y92.492445 E.089208309
G1 X222.743657 Y117.758066 E3.939084342
G1 X222.615748 Y118.679683 E.145063677
G1 X222.322729 Y119.574562 E.146806723
G1 X222.117251 Y119.998701 E.073477493
G1 X221.596627 Y120.783315 E.146806716
G1 X221.285675 Y121.137467 E.073477441
G1 X121.212307 Y221.212311 E22.064902153
G1 X120.671205 Y221.68401 E.111915877
G1 X120.002021 Y222.115449 E.124134274
G1 X119.264722 Y222.444517 E.125879295
G1 X118.496707 Y222.654519 E.124134376
G1 X117.694551 Y222.746394 E.125879266
G1 X92.432648 Y222.749568 E3.938504587
G1 X91.451938 Y222.644324 E.153777338
G1 X90.508221 Y222.357502 E.153777356
G1 X89.634807 Y221.899226 E.153777378
G1 X88.862525 Y221.285671 E.153777403
G1 X88.501093 Y220.901657 E.082217764
G1 X88.180008 Y220.483321 E.082217874
G1 X87.671403 Y219.560871 E.164227981
G1 X87.357184 Y218.555456 E.16422797
G1 X87.250001 Y217.507551 E.164227983
G1 X87.250296 Y92.443872 E19.498288373
G1 X87.353442 Y91.462939 E.153777357
G1 X87.638246 Y90.518611 E.153777361
G1 X88.094654 Y89.644219 E.153777435
G1 X88.655161 Y88.930345 E.141505074
G1 X89.218789 Y89.424065 F6000
G1 F1200
G1 X89.93884 Y88.799931 E.148563528
G1 X90.71923 Y88.367337 E.139111067
G1 X91.569632 Y88.097222 E.139111028
G1 X92.456612 Y88.000205 E.13911104
G1 X217.510396 Y88.000008 E19.496745674
G1 X218.326667 Y88.076578 E.127820951
G1 X218.731179 Y88.171693 E.064786171
G1 X219.505349 Y88.471523 E.12943438
G1 X220.202962 Y88.902216 E.12782086
G1 X220.817885 Y89.459985 E.129434318
G1 X221.314375 Y90.112409 E.127820769
G1 X221.518355 Y90.474445 E.064786374
G1 X221.822069 Y91.247098 E.129434158
G1 X221.977654 Y92.052054 E.127820908
G1 X221.995673 Y117.697386 E3.998284763
G1 X221.887567 Y118.49964 E.126207405
G1 X221.779871 Y118.890227 E.063167619
G1 X221.461547 Y119.634517 E.126207346
G1 X221.008528 Y120.317843 E.127820887
G1 X220.740856 Y120.621995 E.063167639
G1 X120.681976 Y220.681981 E22.061666967
G1 X120.228537 Y221.078417 E.093903122
G1 X119.644458 Y221.45617 E.108447287
G1 X119.00914 Y221.739397 E.108447386
G1 X118.337764 Y221.921328 E.108447176
G1 X117.64637 Y221.997619 E.108447328
G1 X92.448036 Y221.9997 E3.928593725
G1 X91.601936 Y221.909477 E.132660671
G1 X90.797562 Y221.665539 E.131047436
G1 X90.043871 Y221.270603 E.132660595
G1 X89.377997 Y220.740852 E.132660571
G1 X89.065352 Y220.407443 E.071259587
G1 X88.559216 Y219.672615 E.139111042
G1 X88.204903 Y218.842453 E.14072327
G1 X88.090882 Y218.399839 E.071259499
G1 X87.999996 Y217.5 E.141004868
G1 X88.000188 Y92.458427 E19.494841895
G1 X88.088457 Y91.612122 E.132660503
G1 X88.334457 Y90.797562 E.132660542
G1 X88.729393 Y90.043871 E.132660595
G1 X89.159486 Y89.491764 E.10911278
G1 X89.721222 Y89.987963 F6000
G1 F1200
G1 X90.376789 Y89.408962 E.136363744
G1 X91.023983 Y89.052695 E.11517987
G1 X91.728463 Y88.830223 E.115179829
G1 X92.462887 Y88.75018 E.11517979
G1 X217.509491 Y88.750008 E19.495626263
G1 X218.197936 Y88.815516 E.107818128
G1 X218.862646 Y89.006329 E.10781826
G1 X219.183223 Y89.148985 E.054705401
G1 X219.777488 Y89.520807 E.109290891
G1 X220.279467 Y89.982639 E.106345377
G1 X220.699422 Y90.543923 E.109290828
G1 X221.00421 Y91.164691 E.10781822
G1 X221.113677 Y91.498063 E.054705305
G1 X221.236212 Y92.178676 E.107818248
G1 X221.247304 Y117.642264 E3.969949012
G1 X221.159542 Y118.318703 E.106345397
G1 X221.069916 Y118.648137 E.053227893
G1 X220.79838 Y119.284153 E.107818166
G1 X220.42063 Y119.852111 E.106345335
G1 X220.188 Y120.114796 E.054705352
G1 X120.151646 Y220.15165 E22.056633501
G1 X119.780914 Y220.476561 E.076855827
G1 X119.287956 Y220.796316 E.091607845
G1 X118.76004 Y221.031967 E.090133422
G1 X118.192856 Y221.185437 E.091607829
G1 X117.608661 Y221.248425 E.091607903
G1 X92.462049 Y221.249808 E3.920529902
G1 X91.74622 Y221.173462 E.112235617
G1 X91.066931 Y220.965375 E.110763446
G1 X90.439078 Y220.632909 E.110763368
G1 X89.885196 Y220.187996 E.110763348
G1 X89.62703 Y219.910097 E.05913734
G1 X89.210287 Y219.300088 E.115179813
G1 X88.9184 Y218.611158 E.116651543
G1 X88.824473 Y218.24366 E.059137242
G1 X88.749996 Y217.5 E.116521702
G1 X88.750104 Y92.471536 E19.492798112
G1 X88.822767 Y91.764816 E.110763372
G1 X89.031007 Y91.075702 E.112235848
G1 X89.361883 Y90.44701 E.110763316
G1 X89.661639 Y90.055415 E.076886014
; printing object XYZ Calibration 100 and 200mm (13).stl id:0 copy 0
G10 ; retract
G1 X94.474996 Y94.474996 F6000
G11 ; unretract
;TYPE:Perimeter
G1 F1800
G1 X215.525004 Y94.474996 E18.872529438
G1 X215.525004 Y115.524996 E3.281839888
G1 X115.524996 Y115.524996 E15.59068955
G1 X115.524996 Y215.525 E15.590688927
G1 X94.474996 Y215.525 E3.281839888
G1 X94.474996 Y94.564996 E18.858497195
G1 X93.724996 Y93.724996 F6000
G1 F1800
G1 X216.275004 Y93.724996 E19.106389762
G1 X216.275004 Y116.274996 E3.515700212
G1 X116.274996 Y116.274996 E15.59068955
G1 X116.274996 Y216.275 E15.590688927
G1 X93.724996 Y216.275 E3.515700212
G1 X93.724996 Y93.814996 E19.092357519
G1 X92.974996 Y92.974996 F6000
;TYPE:External perimeter
G1 F900
G1 X217.025004 Y92.974996 E19.340250087
G1 X217.025004 Y117.024996 E3.749560537
G1 X117.024996 Y117.024996 E15.59068955
G1 X117.024996 Y217.025 E15.590688927
G1 X92.974996 Y217.025 E3.749560537
G1 X92.974996 Y93.064996 E19.326217844
G1 X93.51269 Y93.241239 F6000
G10 ; retract
G1 X213.780121 Y94.699986
G11 ; unretract
;TYPE:Top solid infill
;WIDTH:0.751807
G1 F900
G1 X214.962513 Y95.882378 E.261328549
G1 X214.962513 Y96.945593 E.166161908
G1 X213.054406 Y95.037487 E.421723677
G1 X211.99119 Y95.037487 E.166162064
G1 X214.962513 Y98.008809 E.656712322
G1 X214.962513 Y99.072024 E.166161908
G1 X210.927975 Y95.037487 E.891700746
G1 X209.864759 Y95.037487 E.166162064
G1 X214.962513 Y100.13524 E1.126689392
G1 X214.962513 Y101.198456 E.166162064
G1 X208.801544 Y95.037487 E1.361677926
G1 X207.738328 Y95.037487 E.166162064
G1 X214.962513 Y102.261671 E1.596666461
G1 X214.962513 Y103.324887 E.166162064
G1 X206.675112 Y95.037487 E1.831655106
G1 X205.611897 Y95.037487 E.166161908
G1 X214.962513 Y104.388103 E2.066643641
G1 X214.962513 Y105.451318 E.166161908
G1 X204.548681 Y95.037487 E2.301632175
G1 X203.485465 Y95.037487 E.166162064
G1 X214.962512 Y106.514534 E2.53662071
G1 X214.962512 Y107.57775 E.166162064
G1 X202.42225 Y95.037487 E2.771609244
G1 X201.359034 Y95.037487 E.166162064
G1 X214.962512 Y108.640965 E3.006597779
G1 X214.962512 Y109.704181 E.166162064
G1 X200.295818 Y95.037487 E3.241586424
G1 X199.232603 Y95.037487 E.166161908
G1 X214.962512 Y110.767397 E3.476574959
G1 X214.962512 Y111.830612 E.166161908
G1 X198.169387 Y95.037487 E3.711563493
G1 X197.106171 Y95.037487 E.166162064
G1 X214.962512 Y112.893828 E3.946552139
G1 X214.962512 Y113.957044 E.166162064
G1 X196.042956 Y95.037487 E4.181540673
G1 X194.97974 Y95.037487 E.166162064
G1 X214.904757 Y114.962504 E4.40376438
G1 X213.841542 Y114.962504 E.166161908
G1 X193.916524 Y95.037487 E4.40376449
G1 X192.853309 Y95.037487 E.166161908
G1 X212.778326 Y114.962504 E4.40376438
G1 X211.71511 Y114.962504 E.166162064
G1 X191.790093 Y95.037487 E4.40376438
G1 X190.726877 Y95.037487 E.166162064
G1 X210.651895 Y114.962504 E4.40376449
G1 X209.588679 Y114.962504 E.166162064
G1 X189.663662 Y95.037487 E4.40376438
G1 X188.600446 Y95.037487 E.166162064
G1 X208.525463 Y114.962504 E4.40376438
G1 X207.462248 Y114.962504 E.166161908
G1 X187.53723 Y95.037487 E4.40376449
G1 X186.474015 Y95.037487 E.166161908
G1 X206.399032 Y114.962504 E4.40376438
G1 X205.335816 Y114.962504 E.166162064
G1 X185.410799 Y95.037487 E4.40376438
G1 X184.347584 Y95.037487 E.166161908
G1 X204.272601 Y114.962504 E4.40376438
G1 X203.209385 Y114.962504 E.166162064
G1 X183.284368 Y95.037487 E4.40376438
G1 X182.221153 Y95.037487 E.166161908
G1 X202.14617 Y114.962504 E4.40376438
G1 X201.082954 Y114.962504 E.166162064
G1 X181.157937 Y95.037487 E4.40376438
G1 X180.094722 Y95.037487 E.166161908
G1 X200.019738 Y114.962504 E4.403764269
G1 X198.956523 Y114.962504 E.166161908
G1 X179.031506 Y95.037487 E4.40376438
G1 X177.96829 Y95.037487 E.166162064
G1 X197.893308 Y114.962505 E4.403764601
G1 X196.830092 Y114.962505 E.166162064
G1 X176.905075 Y95.037487 E4.40376449
G1 X175.841859 Y95.037487 E.166162064
G1 X195.766876 Y114.962505 E4.40376449
G1 X194.703661 Y114.962505 E.166161908
G1 X174.778643 Y95.037487 E4.403764601
G1 X173.715428 Y95.037487 E.166161908
G1 X193.640445 Y114.962505 E4.40376449
G1 X192.577229 Y114.962505 E.166162064
G1 X172.652212 Y95.037487 E4.40376449
G1 X171.588996 Y95.037487 E.166162064
G1 X191.514014 Y114.962505 E4.403764601
G1 X190.450798 Y114.962505 E.166162064
G1 X170.525781 Y95.037487 E4.40376449
G1 X169.462565 Y95.037487 E.166162064
G1 X189.387582 Y114.962505 E4.40376449
G1 X188.324367 Y114.962505 E.166161908
G1 X168.399349 Y95.037487 E4.403764601
G1 X167.336134 Y95.037487 E.166161908
G1 X187.261151 Y114.962505 E4.40376449
G1 X186.197935 Y114.962505 E.166162064
G1 X166.272918 Y95.037487 E4.40376449
G1 X165.209702 Y95.037487 E.166162064
G1 X185.13472 Y114.962505 E4.403764601
G1 X184.071504 Y114.962505 E.166162064
G1 X164.146487 Y95.037487 E4.40376449
G1 X163.083271 Y95.037487 E.166162064
G1 X183.008288 Y114.962505 E4.40376449
G1 X181.945073 Y114.962505 E.166161908
G1 X162.020055 Y95.037487 E4.403764601
G1 X160.95684 Y95.037487 E.166161908
G1 X180.881857 Y114.962505 E4.40376449
G1 X179.818641 Y114.962505 E.166162064
G1 X159.893624 Y95.037487 E4.40376449
G1 X158.830408 Y95.037487 E.166162064
G1 X178.755426 Y114.962505 E4.403764601
G1 X177.69221 Y114.962505 E.166162064
G1 X157.767193 Y95.037487 E4.40376449
G1 X156.703977 Y95.037487 E.166162064
G1 X176.628994 Y114.962505 E4.40376449
G1 X175.565779 Y114.962505 E.166161908
G1 X155.640761 Y95.037487 E4.403764601
G1 X154.577546 Y95.037487 E.166161908
G1 X174.502563 Y114.962505 E4.40376449
G1 X173.439348 Y114.962505 E.166161908
G1 X153.51433 Y95.037487 E4.403764601
G1 X152.451114 Y95.037487 E.166162064
G1 X172.376132 Y114.962505 E4.403764601
G1 X171.312916 Y114.962505 E.166162064
G1 X151.387899 Y95.037487 E4.40376449
G1 X150.324683 Y95.037487 E.166162064
G1 X170.249701 Y114.962505 E4.403764601
G1 X169.186485 Y114.962505 E.166162064
G1 X149.261467 Y95.037487 E4.403764601
G1 X148.198252 Y95.037487 E.166161908
G1 X168.123269 Y114.962505 E4.40376449
G1 X167.060054 Y114.962505 E.166161908
G1 X147.135036 Y95.037487 E4.403764601
G1 X146.071821 Y95.037487 E.166161908
G1 X165.996838 Y114.962505 E4.40376449
G1 X164.933623 Y114.962505 E.166161908
G1 X145.008605 Y95.037487 E4.403764601
G1 X143.945389 Y95.037487 E.166162064
G1 X163.870407 Y114.962505 E4.403764601
G1 X162.807192 Y114.962505 E.166161908
G1 X142.882174 Y95.037487 E4.403764601
G1 X141.818958 Y95.037487 E.166162064
G1 X161.743976 Y114.962505 E4.403764601
G1 X160.68076 Y114.962505 E.166162064
G1 X140.755742 Y95.037487 E4.403764601
G1 X139.692527 Y95.037487 E.166161908
G1 X159.617545 Y114.962505 E4.403764601
G1 X158.554329 Y114.962505 E.166162064
G1 X138.629311 Y95.037487 E4.403764601
G1 X137.566095 Y95.037487 E.166162064
G1 X157.491113 Y114.962505 E4.403764601
G1 X156.427898 Y114.962505 E.166161908
G1 X136.50288 Y95.037487 E4.403764601
G1 X135.439664 Y95.037487 E.166162064
G1 X155.364682 Y114.962505 E4.403764601
G1 X154.301466 Y114.962505 E.166162064
G1 X134.376448 Y95.037487 E4.403764601
G1 X133.313233 Y95.037487 E.166161908
G1 X153.238251 Y114.962505 E4.403764601
G1 X152.175035 Y114.962505 E.166162064
G1 X132.250017 Y95.037487 E4.403764601
G1 X131.186801 Y95.037487 E.166162064
G1 X151.111819 Y114.962505 E4.403764601
G1 X150.048604 Y114.962505 E.166161908
G1 X130.123586 Y95.037487 E4.403764601
G1 X129.06037 Y95.037487 E.166162064
G1 X148.985388 Y114.962505 E4.403764601
G1 X147.922172 Y114.962505 E.166162064
G1 X127.997154 Y95.037487 E4.403764601
G1 X126.933939 Y95.037487 E.166161908
G1 X146.858957 Y114.962505 E4.403764601
G1 X145.795741 Y114.962505 E.166162064
G1 X125.870723 Y95.037487 E4.403764601
G1 X124.807508 Y95.037488 E.166161908
G1 X144.732526 Y114.962505 E4.40376449
G1 X143.66931 Y114.962505 E.166162064
G1 X123.744292 Y95.037488 E4.40376449
G1 X122.681077 Y95.037488 E.166161908
G1 X142.606094 Y114.962505 E4.40376438
G1 X141.542879 Y114.962505 E.166161908
G1 X121.617861 Y95.037488 E4.40376449
G1 X120.554646 Y95.037488 E.166161908
G1 X140.479663 Y114.962505 E4.40376438
G1 X139.416447 Y114.962505 E.166162064
G1 X119.49143 Y95.037488 E4.40376438
G1 X118.428214 Y95.037488 E.166162064
G1 X138.353232 Y114.962505 E4.40376449
G1 X137.290016 Y114.962505 E.166162064
G1 X117.364999 Y95.037488 E4.40376438
G1 X116.301783 Y95.037488 E.166162064
G1 X136.2268 Y114.962505 E4.40376438
G1 X135.163585 Y114.962505 E.166161908
G1 X115.238567 Y95.037488 E4.40376449
G1 X114.175352 Y95.037488 E.166161908
G1 X134.100369 Y114.962505 E4.40376438
G1 X133.037153 Y114.962505 E.166162064
G1 X113.112136 Y95.037488 E4.40376438
G1 X112.04892 Y95.037488 E.166162064
G1 X131.973938 Y114.962505 E4.40376449
G1 X130.910723 Y114.962506 E.166161908
G1 X110.985705 Y95.037488 E4.403764601
G1 X109.922489 Y95.037488 E.166162064
G1 X129.847507 Y114.962506 E4.403764601
G1 X128.784291 Y114.962506 E.166162064
G1 X108.859273 Y95.037488 E4.403764601
G1 X107.796058 Y95.037488 E.166161908
G1 X127.721076 Y114.962506 E4.403764601
G1 X126.65786 Y114.962506 E.166162064
G1 X106.732842 Y95.037488 E4.403764601
G1 X105.669626 Y95.037487 E.166162064
G1 X125.594644 Y114.962506 E4.403764711
G1 X124.531429 Y114.962506 E.166161908
G1 X104.606411 Y95.037487 E4.403764711
G1 X103.543195 Y95.037487 E.166162064
G1 X123.468213 Y114.962506 E4.403764711
G1 X122.404997 Y114.962506 E.166162064
G1 X102.479979 Y95.037487 E4.403764711
G1 X101.416764 Y95.037487 E.166161908
G1 X121.341782 Y114.962506 E4.403764711
G1 X120.278566 Y114.962506 E.166162064
G1 X100.353548 Y95.037487 E4.403764711
G1 X99.290332 Y95.037487 E.166162064
G1 X119.21535 Y114.962506 E4.403764711
G1 X118.152135 Y114.962506 E.166161908
G1 X98.227117 Y95.037487 E4.403764711
G1 X97.163901 Y95.037487 E.166162064
G1 X117.088919 Y114.962506 E4.403764711
G1 X116.025704 Y114.962506 E.166161908
G1 X96.100685 Y95.037487 E4.403764822
G1 X95.037487 Y95.037487 E.166159251
G1 X114.962506 Y114.962524 E4.403766811
G1 X114.962506 Y116.02574 E.166162064
G1 X95.037487 Y96.10072 E4.403764932
G1 X95.037487 Y97.163936 E.166162064
G1 X114.962506 Y117.088955 E4.403764822
G1 X114.962506 Y118.152171 E.166162064
G1 X95.037487 Y98.227151 E4.403764932
G1 X95.037487 Y99.290367 E.166162064
G1 X114.962506 Y119.215387 E4.403764932
G1 X114.962506 Y120.278602 E.166161908
G1 X95.037487 Y100.353583 E4.403764822
G1 X95.037487 Y101.416798 E.166161908
G1 X114.962506 Y121.341818 E4.403764932
G1 X114.962506 Y122.405034 E.166162064
G1 X95.037487 Y102.480014 E4.403764932
G1 X95.037487 Y103.54323 E.166162064
G1 X114.962506 Y123.468249 E4.403764822
G1 X114.962506 Y124.531465 E.166162064
G1 X95.037487 Y104.606445 E4.403764932
G1 X95.037487 Y105.669661 E.166162064
G1 X114.962506 Y125.594681 E4.403764932
